!!!OTL: FRAENDE NUZT SEN MIR ZESOEMEN
!!!ARE: Europa, Mitteleuropa, Deutschland; Rumaenien, Siebenbuergen, Noesen
!!!SCT: E1168
!!!YEM: Copyright 1995, estate of Helmut Schaffrath.
**kern
*ICvox
*Ivox
*M6/8
*k[f#]
*G:
=1
{4dd
8b
4cc
8a
=2
4b
8g
4g
8g}
=3
{4a
8b
4cc
8dd
=4
4.b
4.r}
=5
{4a
8b
4cc
8a
=6
4b
8cc
8dd
8dd
8dd}
=7
{4ee
8cc
8a
8a
8f#
=8
4.g
4.r}
==
!!!AGN: Trink -, Zech - Lied
!!!ONB: ESAC (Essen Associative Code) Database: ERK3
!!!AMT: compound duple
!!!AIN: vox
!!!EED: Helmut Schaffrath
!!!EEV: 1.0
*-
